;FLAVOR:UltiGCode
;TIME:4168
;MATERIAL:6750
;MATERIAL2:0
;NOZZLE_DIAMETER:0.4
;MINX:84.9
;MINY:90.499
;MINZ:0.27
;MAXX:138.035
;MAXY:132.501
;MAXZ:25.47
;Generated with Cura_SteamEngine 4.13.1
M82 ;absolute extrusion mode
G0 F3000 Y50 ;avoid prime blob
G92 E0
G92 E0
G10
;LAYER_COUNT:169
;LAYER:0
M107
G0 F4500 X89.329 Y91.476 Z0.27
;TYPE:SKIRT
G11
G1 F1800 X89.742 Y91.142 E0.05019
G1 X90.2 Y90.875 E0.10029
G1 X90.693 Y90.68 E0.15039
G1 X91.211 Y90.56 E0.20064
G1 X91.67 Y90.521 E0.24417
G1 X92.768 Y90.499 E0.34795
G1 X96.803 Y90.499 E0.72926
G1 X97.504 Y90.509 E0.79551
G1 X98.193 Y90.587 E0.86104
G1 X99.503 Y90.868 E0.98765
G1 X102.16 Y91.401 E1.24374
G1 X104.882 Y91.867 E1.50471
G1 X107.556 Y92.247 E1.75994
G1 X110.316 Y92.56 E2.02243
G1 X113.003 Y92.788 E2.27727
G1 X115.701 Y92.941 E2.53264
G1 X118.467 Y93.018 E2.79413
G1 X121.167 Y93.018 E3.04928
G1 X123.928 Y92.939 E3.3103
G1 X126.201 Y92.816 E3.52541
G1 X126.713 Y92.782 E3.5739
G1 X127.413 Y92.751 E3.64012
G1 X127.943 Y92.768 E3.69023
G1 X128.465 Y92.864 E3.74038
G1 X128.965 Y93.036 E3.79035
G1 X130.221 Y93.578 E3.91962
G1 X130.397 Y93.657 E3.93785
G1 X133.009 Y94.739 E4.20503
G1 X134.181 Y95.209 E4.32435
G1 X134.657 Y95.443 E4.37448
G1 X135.093 Y95.746 E4.42465
G1 X135.473 Y96.105 E4.47405
G1 X135.949 Y96.619 E4.54026
G1 X136.914 Y97.679 E4.67572
G1 X137.241 Y98.097 E4.72587
G1 X137.584 Y98.715 E4.79266
G1 X137.791 Y99.204 E4.84284
G1 X137.932 Y99.779 E4.89879
G1 X137.994 Y100.172 E4.93639
G1 X138.035 Y100.849 E5.00048
G1 X138.017 Y101.316 E5.04465
G1 X137.951 Y102.409 E5.14812
G1 X137.863 Y103.635 E5.26428
G1 X137.776 Y104.659 E5.3614
G1 X137.623 Y107.356 E5.61667
G1 X137.545 Y110.127 E5.87864
G1 X137.545 Y112.825 E6.1336
G1 X137.623 Y115.58 E6.39405
G1 X137.857 Y119.349 E6.7509
G1 X137.935 Y120.304 E6.84145
G1 X138.028 Y121.853 E6.9881
G1 X138.028 Y122.439 E7.04347
G1 X137.988 Y122.959 E7.09276
G1 X137.907 Y123.484 E7.14296
G1 X137.749 Y123.99 E7.19305
G1 X137.486 Y124.526 E7.24947
G1 X137.375 Y124.715 E7.27019
G1 X136.93 Y125.316 E7.34085
G1 X135.476 Y126.897 E7.54384
G1 X135.088 Y127.26 E7.59405
G1 X134.65 Y127.56 E7.64422
G1 X134.173 Y127.791 E7.6943
G1 X133.814 Y127.91 E7.73004
G1 X133.034 Y128.123 E7.80645
G1 X132.493 Y128.254 E7.85905
G1 X131.39 Y128.479 E7.96543
G1 X130.739 Y128.582 E8.02772
G1 X130.192 Y128.651 E8.07982
G1 X129.426 Y128.717 E8.15247
G1 X128.978 Y128.737 E8.19485
G1 X127.712 Y128.774 E8.31454
G1 X127.364 Y128.775 E8.34742
G1 X125.955 Y128.755 E8.48059
G1 X123.242 Y128.755 E8.73697
G1 X120.473 Y128.833 E8.99874
G1 X117.774 Y128.986 E9.25421
G1 X115.052 Y129.217 E9.51236
G1 X112.369 Y129.522 E9.76754
G1 X109.621 Y129.913 E10.02984
G1 X106.968 Y130.367 E10.28419
G1 X104.285 Y130.906 E10.5428
G1 X101.626 Y131.516 E10.8006
G1 X99.004 Y132.199 E11.05665
G1 X98.358 Y132.375 E11.11992
G1 X97.574 Y132.488 E11.19478
G1 X97.111 Y132.501 E11.23855
G1 X92.392 Y132.501 E11.68449
G1 X91.695 Y132.491 E11.75037
G1 X91.167 Y132.443 E11.80047
G1 X90.652 Y132.317 E11.85057
G1 X90.161 Y132.115 E11.90074
G1 X89.706 Y131.841 E11.95093
G1 X89.298 Y131.502 E12.00106
G1 X88.945 Y131.106 E12.05119
G1 X88.655 Y130.661 E12.10139
G1 X88.436 Y130.178 E12.15151
G1 X88.291 Y129.667 E12.2017
G1 X88.042 Y128.439 E12.32011
G1 X87.466 Y125.772 E12.57795
G1 X86.818 Y123.137 E12.83438
G1 X86.088 Y120.498 E13.09313
G1 X85.07 Y117.222 E13.41731
G1 X84.951 Y116.705 E13.46745
G1 X84.908 Y116.155 E13.51958
G1 X84.9 Y115.654 E13.56693
G1 X84.9 Y106.633 E14.41942
G1 X84.911 Y105.924 E14.48642
G1 X84.96 Y105.396 E14.53653
G1 X85.095 Y104.854 E14.58932
G1 X85.321 Y104.183 E14.65623
G1 X86.161 Y101.573 E14.91533
G1 X86.913 Y98.984 E15.1701
G1 X87.612 Y96.292 E15.43293
G1 X88.179 Y93.839 E15.67086
G1 X88.297 Y93.296 E15.72337
G1 X88.449 Y92.788 E15.77348
G1 X88.675 Y92.308 E15.82361
G1 X88.97 Y91.867 E15.87375
G1 X89.329 Y91.476 E15.92391
G0 F4500 X89.644 Y91.662
G1 F1800 X90.048 Y91.36 E15.97158
G1 X90.493 Y91.126 E16.01909
G1 X90.971 Y90.965 E16.06675
G1 X91.677 Y90.871 E16.13406
G1 X92.768 Y90.849 E16.23718
G1 X96.798 Y90.849 E16.61802
G1 X97.499 Y90.859 E16.68427
G1 X98.12 Y90.93 E16.74333
G1 X99.388 Y91.202 E16.86589
G1 X102.101 Y91.746 E17.12737
G1 X104.843 Y92.215 E17.39025
G1 X107.507 Y92.594 E17.64453
G1 X110.246 Y92.905 E17.90503
G1 X112.986 Y93.137 E18.16489
G1 X115.707 Y93.291 E18.42243
G1 X118.458 Y93.368 E18.68251
G1 X121.177 Y93.368 E18.93945
G1 X123.957 Y93.288 E19.20227
G1 X126.179 Y93.168 E19.41255
G1 X126.729 Y93.132 E19.46464
G1 X127.429 Y93.101 E19.53086
G1 X127.932 Y93.119 E19.57842
G1 X128.426 Y93.216 E19.62599
G1 X128.826 Y93.357 E19.66607
G1 X130.079 Y93.898 E19.79505
G1 X130.276 Y93.986 E19.81544
G1 X132.854 Y95.054 E20.07914
G1 X134.051 Y95.534 E20.20101
G1 X134.502 Y95.758 E20.2486
G1 X134.912 Y96.05 E20.29616
G1 X135.475 Y96.626 E20.37228
G1 X135.729 Y96.896 E20.40731
G1 X136.656 Y97.914 E20.53742
G1 X136.964 Y98.312 E20.58498
G1 X137.273 Y98.875 E20.64567
G1 X137.467 Y99.34 E20.69328
G1 X137.586 Y99.833 E20.74121
G1 X137.648 Y100.226 E20.7788
G1 X137.685 Y100.837 E20.83665
G1 X137.667 Y101.295 E20.87996
G1 X137.602 Y102.384 E20.98306
G1 X137.515 Y103.605 E21.09873
G1 X137.427 Y104.643 E21.19718
G1 X137.273 Y107.364 E21.45472
G1 X137.195 Y110.117 E21.71499
G1 X137.195 Y112.835 E21.97184
G1 X137.273 Y115.58 E22.23134
G1 X137.51 Y119.403 E22.59331
G1 X137.593 Y120.429 E22.69058
G1 X137.603 Y120.63 E22.7096
G1 X137.678 Y121.867 E22.82671
G1 X137.679 Y122.413 E22.87831
G1 X137.639 Y122.933 E22.9276
G1 X137.56 Y123.43 E22.97515
G1 X137.404 Y123.909 E23.02276
G1 X137.073 Y124.538 E23.08993
G1 X136.672 Y125.079 E23.15356
G1 X135.218 Y126.66 E23.35654
G1 X134.849 Y127.003 E23.40415
G1 X134.43 Y127.282 E23.45172
G1 X133.972 Y127.493 E23.49938
G1 X133.722 Y127.573 E23.52418
G1 X133.03 Y127.763 E23.592
G1 X132.423 Y127.911 E23.65104
G1 X131.32 Y128.136 E23.75742
G1 X130.688 Y128.236 E23.81788
G1 X130.157 Y128.303 E23.86846
G1 X129.401 Y128.368 E23.94017
G1 X128.968 Y128.388 E23.98113
G1 X127.711 Y128.424 E24.09997
G1 X127.369 Y128.425 E24.13228
G1 X125.96 Y128.405 E24.26545
G1 X123.232 Y128.405 E24.52324
G1 X120.478 Y128.483 E24.7836
G1 X117.759 Y128.637 E25.04096
G1 X115.017 Y128.869 E25.301
G1 X112.284 Y129.18 E25.56094
G1 X109.582 Y129.565 E25.81886
G1 X106.909 Y130.022 E26.07512
G1 X104.214 Y130.563 E26.33488
G1 X101.56 Y131.172 E26.5922
G1 X98.861 Y131.875 E26.85577
G1 X98.269 Y132.036 E26.91374
G1 X97.563 Y132.138 E26.98115
G1 X97.111 Y132.151 E27.02388
G1 X92.397 Y132.151 E27.46936
G1 X91.7 Y132.141 E27.53523
G1 X91.199 Y132.094 E27.58278
G1 X90.711 Y131.968 E27.63041
G1 X90.25 Y131.766 E27.67797
G1 X89.826 Y131.495 E27.72553
G1 X89.45 Y131.159 E27.77318
G1 X89.132 Y130.769 E27.82073
G1 X88.88 Y130.333 E27.86832
G1 X88.7 Y129.862 E27.91597
G1 X88.634 Y129.597 E27.94178
G1 X88.385 Y128.369 E28.06018
G1 X87.806 Y125.691 E28.3191
G1 X87.16 Y123.062 E28.57493
G1 X86.421 Y120.393 E28.83664
G1 X85.404 Y117.118 E29.16071
G1 X85.293 Y116.627 E29.20828
G1 X85.255 Y116.059 E29.26208
G1 X85.25 Y115.65 E29.30073
G1 X85.25 Y106.639 E30.15227
G1 X85.261 Y105.93 E30.21928
G1 X85.309 Y105.428 E30.26693
G1 X85.427 Y104.966 E30.31199
G1 X85.653 Y104.295 E30.3789
G1 X86.485 Y101.709 E30.63562
G1 X87.255 Y99.059 E30.8964
G1 X87.951 Y96.383 E31.1577
G1 X88.521 Y93.914 E31.39715
G1 X88.639 Y93.371 E31.44966
G1 X88.785 Y92.889 E31.49726
G1 X89.005 Y92.436 E31.54485
G1 X89.294 Y92.023 E31.59248
G1 X89.644 Y91.662 E31.64
G0 F4500 X91.911 Y94.199
;TYPE:SUPPORT
G1 F1800 X97.285 Y94.199 E32.14784
G1 X97.286 Y96.161 E32.33325
G1 X97.636 Y96.51 E32.37996
G1 X105.529 Y96.51 E33.12585
G1 X105.641 Y96.513 E33.13643
G1 X106.799 Y96.562 E33.24596
G1 X107.27 Y96.606 E33.29067
G1 X108.293 Y96.743 E33.3882
G1 X110.106 Y97.191 E33.56468
G1 X111.185 Y97.56 E33.67245
G1 X111.417 Y97.654 E33.6961
G1 X111.538 Y99.586 E33.87903
G1 X112.013 Y99.847 E33.93025
G1 X113.8 Y98.858 E34.12326
G1 X113.979 Y98.969 E34.14316
G1 X114.421 Y98.986 E34.18496
G1 X114.845 Y98.765 E34.23015
G1 X116.739 Y100.155 E34.45216
G1 X117.18 Y100.202 E34.49407
G1 X120.407 Y98.748 E34.82855
G1 X124.958 Y97.167 E35.28383
G1 X125.217 Y96.777 E35.32807
G1 X125.204 Y96.597 E35.34513
G1 X126.45 Y96.505 E35.46319
G1 X127.497 Y96.443 E35.56231
G1 X128.417 Y97.49 E35.69402
G1 X128.353 Y97.548 E35.70218
G1 X128.388 Y100.508 E35.98192
G1 X129.001 Y101.115 E36.06344
G1 X131.583 Y101.115 E36.30744
G1 X132.195 Y100.497 E36.38964
G1 X132.194 Y98.475 E36.58071
G1 X132.773 Y98.625 E36.63724
G1 X133.913 Y100.088 E36.81251
G1 X134.217 Y100.214 E36.8436
G1 X134.301 Y100.384 E36.86152
G1 X134.346 Y100.802 E36.90125
G1 X134.276 Y101.721 E36.98835
G1 X134.25 Y102.389 E37.05152
G1 X133.511 Y103.447 E37.17348
G1 X132.772 Y103.908 E37.25579
G1 X132.27 Y104.255 E37.31346
G1 X131.919 Y104.517 E37.35485
G1 X131.118 Y105.214 E37.45519
G1 X130.422 Y105.974 E37.55258
G1 X130.237 Y106.213 E37.58114
G1 X129.845 Y106.743 E37.64343
G1 X129.541 Y107.203 E37.69554
G1 X129.17 Y107.858 E37.76667
G1 X128.816 Y108.625 E37.8465
G1 X128.696 Y108.941 E37.87845
G1 X128.522 Y109.423 E37.92687
G1 X128.373 Y109.915 E37.97545
G1 X128.241 Y110.459 E38.02835
G1 X128.075 Y111.505 E38.12844
G1 X128.238 Y112.522 E38.22577
G1 X128.378 Y113.101 E38.28206
G1 X128.651 Y113.966 E38.36778
G1 X128.847 Y114.456 E38.41765
G1 X129.114 Y115.026 E38.47713
G1 X129.345 Y115.455 E38.52318
G1 X129.727 Y116.087 E38.59296
G1 X130.079 Y116.569 E38.64936
G1 X130.451 Y117.055 E38.7072
G1 X131.159 Y117.812 E38.80515
G1 X131.88 Y118.449 E38.89607
G1 X132.766 Y119.084 E38.99908
G1 X133.516 Y119.555 E39.08277
G1 X134.254 Y120.623 E39.20545
G1 X134.277 Y121.234 E39.26323
G1 X134.318 Y121.753 E39.31242
G1 X134.347 Y122.304 E39.36457
G1 X134.315 Y122.633 E39.3958
G1 X134.225 Y122.793 E39.41315
G1 X133.912 Y122.915 E39.4449
G1 X132.776 Y124.376 E39.61979
G1 X132.195 Y124.524 E39.67644
G1 X132.194 Y122.497 E39.868
G1 X131.576 Y121.885 E39.95019
G1 X129 Y121.885 E40.19362
G1 X128.387 Y122.492 E40.27514
G1 X128.359 Y125.06 E40.51783
G1 X127.995 Y125.075 E40.55226
G1 X126.705 Y125.075 E40.67417
G1 X125.134 Y124.931 E40.82325
G1 X122.465 Y124.482 E41.07901
G1 X122.074 Y124.813 E41.12742
G1 X122.074 Y124.832 E41.12922
G1 X120.387 Y124.247 E41.29795
G1 X117.188 Y122.794 E41.62998
G1 X116.749 Y122.84 E41.67169
G1 X114.846 Y124.237 E41.89478
G1 X114.417 Y124.014 E41.94047
G1 X113.976 Y124.033 E41.98219
G1 X113.805 Y124.142 E42.00135
G1 X112.004 Y123.136 E42.19629
G1 X111.528 Y123.397 E42.2476
G1 X111.41 Y125.348 E42.4323
G1 X111.014 Y125.501 E42.47242
G1 X110.151 Y125.799 E42.5587
G1 X108.807 Y126.131 E42.68952
G1 X108.402 Y126.228 E42.72888
G1 X107.059 Y126.415 E42.85702
G1 X106.66 Y126.446 E42.89484
G1 X105.56 Y126.49 E42.99887
G1 X97.636 Y126.49 E43.74769
G1 X97.286 Y126.839 E43.7944
G1 X97.285 Y128.801 E43.9798
G1 X91.911 Y128.801 E44.48765
G1 X91.907 Y126.568 E44.69867
G1 X92.589 Y124.976 E44.86233
G1 X92.51 Y124.529 E44.90523
G1 X90.946 Y122.872 E45.12055
G1 X90.946 Y122.124 E45.19124
G1 X90.976 Y121.392 E45.26047
G1 X91.027 Y120.569 E45.33839
G1 X91.027 Y117.939 E45.58693
G1 X90.221 Y116.336 E45.75648
G1 X89.84 Y116.101 E45.79878
G1 X88.6 Y116.1 E45.91596
G1 X88.6 Y106.053 E46.86541
G1 X90.648 Y106.048 E47.05894
G1 X90.997 Y105.698 E47.10565
G1 X90.997 Y102.006 E47.45454
G1 X90.946 Y100.873 E47.56172
G1 X90.946 Y100.134 E47.63156
G1 X92.564 Y98.506 E47.84846
G1 X92.65 Y98.059 E47.89148
G1 X91.907 Y96.318 E48.07036
G1 X91.911 Y94.199 E48.2706
G0 F4500 X92.756 Y95.076
G1 F1800 X92.757 Y100.503 E48.78346
G1 X93.375 Y101.115 E48.86565
G1 X95.824 Y101.115 E49.09708
G1 X96.44 Y100.499 E49.1794
G1 X96.439 Y95.072 E49.69225
G1 X95.821 Y94.46 E49.77444
G1 X93.372 Y94.46 E50.00588
G1 X92.756 Y95.076 E50.0882
G0 F4500 X93.064 Y109.011
G1 F1800 X92.856 Y109.217 E50.11586
G1 X92.856 Y109.708 E50.16226
G1 X92.747 Y109.818 E50.1769
G1 X92.752 Y113.467 E50.52173
G1 X92.853 Y113.567 E50.53516
G1 X92.853 Y114.242 E50.59895
G1 X93.065 Y114.448 E50.62688
G1 X94.648 Y114.399 E50.77655
G1 X96.127 Y114.439 E50.91636
G1 X96.339 Y114.233 E50.9443
G1 X96.339 Y113.557 E51.00818
G1 X96.438 Y113.458 E51.02141
G1 X96.448 Y111.216 E51.23328
G1 X96.447 Y109.809 E51.36624
G1 X96.342 Y109.703 E51.38034
G1 X96.342 Y109.214 E51.42655
G1 X96.138 Y109.008 E51.45395
G1 X94.369 Y109.008 E51.62112
G1 X93.465 Y109.015 E51.70655
G1 X93.064 Y109.011 E51.74445
G10
G0 F4500 X92.929 Y109.893
G0 X92.933 Y112.726
G0 X93.372 Y121.885
G11
G1 F1800 X92.756 Y122.501 E51.82677
G1 X92.757 Y127.928 E52.33962
G1 X93.375 Y128.54 E52.42181
G1 X95.824 Y128.54 E52.65324
G1 X96.44 Y127.924 E52.73557
G1 X96.44 Y122.501 E53.24804
G1 X95.824 Y121.885 E53.33037
G1 X93.372 Y121.885 E53.56208
G1 X93.32 Y121.745
G1 X93.32 Y114.58 E54.23917
G0 F4500 X92.729 Y114.317
G1 F1800 X88.74 Y114.317 E54.61613
G0 F4500 X88.74 Y111.984
G1 F1800 X92.61 Y111.984 E54.98185
G0 F4500 X92.715 Y109.651
G1 F1800 X88.74 Y109.651 E55.35749
G0 F4500 X88.74 Y107.318
G1 F1800 X129.314 Y107.318 E59.19173
G0 F4500 X130.648 Y105.521
G1 F1800 X130.648 Y101.255 E59.59487
G10
G0 F4500 X132.334 Y100.319
G11
G1 F1800 X134.106 Y100.319 E59.76232
G0 F4500 X132.981 Y99.12
G1 F1800 X132.981 Y103.614 E60.187
G0 F4500 X133.896 Y102.652
G1 F1800 X91.137 Y102.652 E64.22773
G0 F4500 X91.137 Y104.985
G1 F1800 X131.166 Y104.985 E68.01047
G0 F4500 X128.315 Y100.633
G1 F1800 X128.315 Y109.622 E68.85993
G1 X128.305 Y109.651
G1 X96.487 Y109.651 E71.86673
G0 F4500 X95.653 Y108.868
G1 F1800 X95.653 Y101.255 E72.58616
G0 F4500 X96.579 Y100.319
G1 F1800 X116.96 Y100.319 E74.51216
G0 F4500 X117.262 Y100.319
G1 F1800 X128.247 Y100.319 E75.55025
G0 F4500 X128.219 Y97.986
G1 F1800 X123.024 Y97.986 E76.04117
G0 F4500 X123.649 Y97.77
G1 F1800 X123.649 Y124.539 E78.57084
G0 F4500 X121.316 Y124.422
G1 F1800 X121.316 Y98.579 E81.01301
G0 F4500 X118.983 Y99.543
G1 F1800 X118.983 Y123.456 E83.27279
G0 F4500 X119.407 Y123.649
G1 F1800 X128.233 Y123.649 E84.10684
G0 F4500 X128.315 Y122.367
G1 F1800 X128.315 Y113.369 E84.95715
G0 F4500 X128.642 Y114.317
G1 F1800 X96.455 Y114.317 E87.99883
G0 F4500 X95.653 Y114.567
G1 F1800 X95.653 Y121.745 E88.67715
G10
G0 F4500 X96.579 Y123.649
G11
G1 F1800 X111.371 Y123.649 E90.07499
G0 F4500 X111.984 Y122.988
G1 F1800 X111.984 Y99.992 E92.24811
G0 F4500 X111.298 Y97.986
G1 F1800 X96.579 Y97.986 E93.63906
G0 F4500 X97.986 Y96.65
G1 F1800 X97.986 Y126.35 E96.44571
G0 F4500 X96.579 Y125.982
G1 F1800 X108.824 Y125.982 E97.60286
G0 F4500 X109.651 Y125.779
G1 F1800 X109.651 Y97.223 E100.3014
G0 F4500 X107.318 Y96.754
G1 F1800 X107.318 Y126.238 E103.08764
G0 F4500 X104.985 Y126.35
G1 F1800 X104.985 Y96.65 E105.89429
G0 F4500 X102.652 Y96.65
G1 F1800 X102.652 Y126.35 E108.70094
G0 F4500 X100.319 Y126.35
G1 F1800 X100.319 Y96.65 E111.50759
G0 F4500 X97.146 Y95.653
G1 F1800 X96.579 Y95.653 E111.56117
G10
G0 F4500 X95.746 Y94.643
G0 X93.447 Y94.643
G0 X92.616 Y95.653
G11
G1 F1800 X92.049 Y95.653 E111.61475
G0 F4500 X92.617 Y100.319
G1 F1800 X91.086 Y100.319 E111.75943
G0 F4500 X93.32 Y101.255
G1 F1800 X93.32 Y108.873 E112.47933
G0 F4500 X90.987 Y105.905
G1 F1800 X90.987 Y117.547 E113.5795
G0 F4500 X90.535 Y116.65
G1 F1800 X129.966 Y116.65 E117.30573
G0 F4500 X130.648 Y117.471
G1 F1800 X130.648 Y121.745 E117.70963
G10
G0 F4500 X132.334 Y123.649
G11
G1 F1800 X133.163 Y123.649 E117.78797
G0 F4500 X132.981 Y123.885
G1 F1800 X132.981 Y119.384 E118.21331
G0 F4500 X132.385 Y118.983
G1 F1800 X91.166 Y118.983 E122.10851
G0 F4500 X91.121 Y121.316
G1 F1800 X134.144 Y121.316 E126.17418
G10
G0 F4500 X129.075 Y122.068
G0 X125.982 Y124.868
G11
G1 F1800 X125.982 Y96.68 E128.83795
G0 F4500 X116.65 Y100.263
G1 F1800 X116.65 Y122.74 E130.96202
G0 F4500 X115.408 Y123.649
G1 F1800 X113.208 Y123.649 E131.16992
G0 F4500 X114.317 Y123.878
G1 F1800 X114.317 Y99.123 E133.50927
G0 F4500 X128.011 Y111.984
G1 F1800 X96.585 Y111.984 E136.47903
G10
G0 F4500 X96.255 Y113.382
G0 X92.961 Y122.628
G0 X92.615 Y123.649
G11
G1 F1800 X91.87 Y123.649 E136.54943
G0 F4500 X92.31 Y125.982
G1 F1800 X92.616 Y125.982 E136.57835
G0 F4500 X92.948 Y128.315
G1 F1800 X92.049 Y128.315 E136.6633
G10
G0 F4500 X95.046 Y128.348
G0 X96.246 Y128.315
G11
